X: 4144
T: The TOWN CRIER
R: Reel.
%R: reel
B: James Kerr "Merry Melodies" v.4 p.17 #144
Z: 2016 John Chambers <jc:trillian.mit.edu>
M: C
L: 1/8
K: Am
|:\
(e^d)ef ecA2 | (=d^c)de dBG2 |\
e^def e2a2 |[1 edcB ABcd :|[2 edcB A2(AB) |]
|:\
cdef gece | dcBA GABG |\
cdef gecd |[1 (ea)a^g a2AB :|[2 (ea)a^g a2(cd) |]

%%sep 1 1 500
%%sep 1 1 500

